X: 28865
T: Mynydd Gelliwastad
R: jig
M: 6/8
K: Dmajor
B|:dBA BAF|BAB dfe|d2A BAF|E2F F2F|
dBA BAF|BAB dfe|d2A BAF|1 EFE D2B:|2 EFE D2D||
|:f3 g3|a2f g2e|f2d e2B|d2A B2d|
f3 d2f|e2d B3|dBA BAF|1 EFE D3:|2 EFE D2||

